X:1
T:Randegger, 87.87.87.88
T:Arranged from Alberto Randegger by W. L., 1883
T:Randegger, 87.87.87.88
T:Public Domain
C:Arranged from Alberto Randegger by W. L., 1883
Z:Public Domain
%%score ( 1 2 ) ( 3 4 )
L:1/8
M:4/4
K:C
V:1 treble 
V:2 treble 
V:3 bass 
V:4 bass 
V:1
 [EG]2 | [EG]2 [Ec]2 [FA]2 [DF]2 | D2 [DG]2 [CE]2 C2 | [CD]2 [CA]2 [B,A]2 ([B,G][DF]) | %4
 [CE]6 [EG]2 | [EG]2 [Ec]2 [FA]2 [DF]2 | D2 [DG]2 [CE]2 C2 | [B,D]2 [B,G]2 [DB]2 [CA]2 | %8
 [B,G]6 [DG]2 | [FB]2 (AG) [EG]2 [CE]2 | [CF]2 (GF) [CE]2 [EG]2 | [FB]2 (AG) [FB]2 (AG) | %12
 (e4 B2 GA/B/) | [Ec]4 [Ac]2 [Ac]2 | [Ge]4 [Ec]2 [EG]2 | [DF]2 z2 [CE]2 z2 | [B,D]4 z2 (GA/B/) | %17
 [Ec]4 [Ac]2 [Ac]2 | [Ge]4 [Ec]2 [EG]2 | [DF]4 [B,D]4 | C6 |] %21
V:2
 x2 | x8 | D2 x2 C2 x2 | x8 | x8 | x8 | D2 x2 C2 x2 | x8 | x8 | x2 F2 x4 | x2 D2 x4 | %11
 x2 F2 x F2 x | F6 x2 | x8 | x8 | x8 | x8 | x8 | x8 | x8 | C6 |] %21
V:3
 [C,C]2 | [C,C]2 [C,C]2 [F,C]2 [F,A,]2 | [G,B,]2 [G,B,]2 [C,C]2 [E,C]2 | %3
 [F,A,]2 [F,A,]2 G,2 [G,,G,]2 | [C,G,]6 [C,C]2 | [C,C]2 [C,C]2 [F,C]2 [F,A,]2 | %6
 [G,B,]2 [G,B,]2 [C,C]2 [E,G,]2 | [D,G,]2 [D,G,]2 [D,^F,]2 [D,F,]2 | G,6 [G,B,]2 | %9
 [G,D]2 (CB,) [C,C]2 [C,C]2 | [A,,C]2 [B,,G,]2 [C,G,]2 [C,C]2 | [G,D]2 (CB,) [G,D]2 (CB,) | %12
 [G,B,]4 [G,D]2 z2 | [C,C]4 [F,C]2 [F,C]2 | [C,C]6 [C,C]2 | [B,,G,]2 z2 [C,G,]2 z2 | [G,,G,]4 z4 | %17
 [C,C]4 [F,C]2 [F,C]2 | [C,C]6 [C,C]2 | G,4 [G,,F,]4 | [C,E,]6 |] %21
V:4
 x2 | x8 | x8 | x4 G,2 x2 | x8 | x8 | x8 | x8 | G,6 x2 | x2 G,2 x4 | x8 | x2 G,2 x G,2 x | x8 | %13
 x8 | x8 | x8 | x8 | x8 | x8 | G,4 x4 | x6 |] %21

